img/cam-white.svg

<?xml version="1.0" encoding="UTF-8"?>
<svg width="48px" height="36px" viewBox="0 0 48 36" version="1.1" xmlns="http://www.w3.org/2000/svg" xmlns:xlink="http://www.w3.org/1999/xlink">
    <!-- Generator: Sketch 51.2 (57519) - http://www.bohemiancoding.com/sketch -->
    <title>cam-white</title>
    <desc>Created with Sketch.</desc>
    <defs></defs>
    <g id="Events" stroke="none" stroke-width="1" fill="none" fill-rule="evenodd">
        <g id="Assets" transform="translate(-891.000000, -247.000000)">
            <rect id="Rectangle" fill="#333333" x="720" y="-6" width="748" height="1210"></rect>
            <g id="Icon" transform="translate(889.000000, 239.000000)">
                <circle id="Oval" fill-opacity="0" fill="#D8D8D8" cx="26" cy="26" r="26"></circle>
                <g id="002-cctv" transform="translate(2.000000, 8.000000)" fill="#FFFFFF" fill-rule="nonzero">
                    <path d="M24,25.9999688 C27.308625,25.9999688 30,23.3085938 30,19.9999688 C30,16.6913438 27.308625,13.9999688 24,13.9999688 C20.691375,13.9999688 18,16.6913438 18,19.9999688 C18,23.3085938 20.691375,25.9999688 24,25.9999688 Z M24,16.0000312 C26.2060312,16.0000312 28.0000313,17.7939375 28.0000313,20.0000625 C28.0000313,22.2061875 26.2060312,24 24,24 C21.7939687,24 19.9999688,22.2060938 19.9999688,19.9999687 C19.9999688,17.7938437 21.7939687,16.0000312 24,16.0000312 Z" id="Shape"></path>
                    <path d="M22.9999688,21 C23.5527188,21 24,20.5527187 24,19.9999687 C24.55275,19.9999687 25.0000312,19.5526875 25.0000312,18.9999375 C25.0000312,18.4471875 24.55275,17.9999062 24,17.9999062 C22.8975,17.9999062 22.0000312,18.897375 22.0000312,19.999875 C22.0000313,20.5527187 22.4473125,21 22.9999688,21 Z" id="Shape"></path>
                    <path d="M46.9999688,0 L1.00003125,0 C0.44728125,0 0,0.44728125 0,1.00003125 L0,8.0000625 C0,10.2060938 1.79390625,12 4.00003125,12 L4.00003125,16.0000312 C4.00003125,27.0283125 12.9717188,36 24,36 C35.0282812,36 43.9999687,27.0283125 43.9999687,16.0000312 L43.9999687,12 C46.2060938,12 48,10.2060938 48,7.99996875 L48,1.00003125 C48,0.44728125 47.5527187,0 46.9999688,0 Z M42,16.0000313 C42,25.924875 33.9248438,34.0000313 24,34.0000313 C14.0751562,34.0000313 6,25.924875 6,16.0000313 L6,12 L18.061875,12 C15.6114375,13.8244688 13.9999688,16.7174063 13.9999688,19.9999688 C13.9999688,25.5136875 18.486375,30 24,30 C29.513625,30 34.0000313,25.5136875 34.0000313,19.9999688 C34.0000313,16.7174062 32.3885625,13.8244687 29.938125,12 L42,12 L42,16.0000313 Z M24,12 C28.411125,12 31.9999688,15.5888437 31.9999688,19.9999687 C31.9999688,24.4110937 28.411125,27.9999375 24,27.9999375 C19.588875,27.9999375 16.0000312,24.4110937 16.0000312,19.9999687 C16.0000313,15.5888437 19.588875,12 24,12 Z M46.0000312,7.99996875 C46.0000312,9.10246875 45.1025625,9.9999375 44.0000625,9.9999375 L4.00003125,9.9999375 C2.89753125,9.9999375 2.0000625,9.10246875 2.0000625,7.99996875 L2.0000625,1.99996875 L46.0000313,1.99996875 L46.0000312,7.99996875 Z" id="Shape"></path>
                    <circle id="Oval" cx="37.0000312" cy="15" r="1.00003125"></circle>
                </g>
            </g>
        </g>
    </g>
</svg>

<svg xmlns="http://www.w3.org/2000/svg" width="48" height="36" fill-rule="evenodd"><path fill="#333" d="M-171-253h748V957h-748z"/><circle fill-opacity="0" fill="#d8d8d8" cx="24" cy="18" r="26"/><g fill="#fff" fill-rule="nonzero"><path d="M24 26a6.01 6.01 0 0 0 6-6 6.01 6.01 0 0 0-6-6 6.01 6.01 0 0 0-6 6 6.01 6.01 0 0 0 6 6zm0-10c2.206 0 4 1.794 4 4s-1.794 4-4 4-4-1.794-4-4 1.794-4 4-4zm-1 5a1 1 0 0 0 1-1 1 1 0 1 0 0-2c-1.102 0-2 .897-2 2a1 1 0 0 0 1 1zM47 0H1a1 1 0 0 0-1 1v7c0 2.206 1.794 4 4 4v4c0 11.028 8.972 20 20 20s20-8.972 20-20v-4c2.206 0 4-1.794 4-4V1a1 1 0 0 0-1-1zm-5 16c0 9.925-8.075 18-18 18S6 25.925 6 16v-4h12.062C15.6 13.824 14 16.717 14 20c0 5.514 4.486 10 10 10s10-4.486 10-10c0-3.283-1.6-6.176-4.062-8H42v4zm-18-4a8.01 8.01 0 0 1 8 8 8.01 8.01 0 0 1-8 8 8.01 8.01 0 0 1-8-8 8.01 8.01 0 0 1 8-8zm22-4c0 1.103-.897 2-2 2H4c-1.102 0-2-.897-2-2V2h44v6z"/><circle cx="37" cy="15" r="1"/></g></svg>
